X:3303
T:Kiproko (S. Milleret)
O:england
C:Trad 1, 107
M:2/4
L:1/16
K:C
+A2e2++Ae++Ae+ +B2d2++Bd++Bd+|\
+A2c2++A2c2+ +B4e4+|\
ABcA BcdB|cBAc B4|\
+A2e2++Ae++Ae+ +B2d2++Bd++Bd+|\
+A2c2++A2c2+ +B4e4+|\
ABcA BcdB|A2^G2 A4:|
ABcA B4|BcdB c4|edcB ABcA|BcdB c2A2|\
ABcA B4|BcdB c4|edcB ABcA|BdcB A4:|


